X:258
T:Miss Mary Gibb #1 
C:Joe Buchanan's Scottish Tome - Page 306.2
I:306 2
C:Lindsay Ross
R:Jig
Z:Carl Allison
L:1/8
M:6/8
K:D
A | "D"F2 A "G"G2 B |"A7" Aag "D"fed |"Em" eBB Bcd |"E7" efd "A7"cBA |
"D"F2 A "G"G2 B |"A7" Aag "D"fed |"A7" cBA gfe |"D" d3 d2 :|
e  |"Bm" f2 B d2 B |"Bm" fgf fed |"A" c2 A e A2 |"A" ced cBA |
"Bm"f2 B d2 B |"Bm" fgf fed |"A" cBA "F#7"edc |"Bm" B3 Bde |
"Bm"f2 B d2 B |"Bm" fgf fed |"A" c2 A e2 A |"A" ced cBA |
"D"AFA dAd |"D" fag fed |"A7" cBA gfe |"D" d3 d2 |]

